X:56
T:Tumble Up. ThoH.056
Q:1/2=90
M:C|
L:1/8
B:Thompson's Compleat Collection of 120 Favourite Hornpipes.
Z:Village Music Project, Simon Wilson 2016
O:England.
K:A
e4(f3g/a/)|(gfed) (cBAG)|F2f2{eg}f4|(edcB) (AGFE)|
(DCD)f (ecBA)|(GB)d2-dfed|(ca)gf (ed)cB|A2A,2A,4:|
|:(CA,)(FC) (AF)c2-|(3cBA (3GFE (D>C)D2|(B,D)FD (BF)(dB)|((3fed) ((3cBA) ((3GAB)E2|
(A,C)(EC) (AE)(cA)|(ec)(ae){g}Tf3e|(dc)BA (Gf)ed|c2A2A4:|

